X:1
T:Title
%%score { ( 1 3 5 ) | ( 2 4 ) }
L:1/8
M:4/4
K:Ab
V:1 treble nm="Grand Piano"
V:3 treble 
V:5 treble 
V:2 treble 
V:4 treble 
V:1
 z8[Q:1/4=100] | e2 z2 z4 | G4 z4 | [Ge]2 [DFd]2 [DB]2 [D_c]2 | %4
[M:11/16] [Ec]/-[Ec]/-[Ec]/-[Ec]/-[Ec]/-[Ec]/-[Ec]/-[Ec]-<[Ec] |[M:5/16] z5/2 |[M:4/4] e2 z2 z4 | %7
 [Fd]4- [Fd]>F G>A | z [Ec]3 z4 |[M:11/16] [CA]/-[CA]/-[CA]/-[CA]/-[CA]/-[CA]/-[CA]/-[CA]-<[CA] | %10
[M:5/16] C<D=D/ |[M:4/4] E2 [Ec]4 z2 |[M:3/4] E2 [Ec]4 |[M:1/4] c>d |[M:4/4] e2 [Ae]2 [EG]2 [EA]2 | %15
 d6 z2 | d2 d2 c2 B2 | e4 z4 | c c3 B2 B2 | %19
[M:11/16] [CA]/-[CA]/-[CA]/-[CA]/-[CA]/-[CA]/-[CA]/-[CA]-<[CA] |] %20
V:2
 z4 z z/ E/ A>c | A,,2 [E,A,]2 C,2 E,2 | B,,>E,, G,,>B,, E,>[K:treble]E G>B | %3
 E,,2 G,2 E,,2 (3A,G,F, |[M:11/16] [A,,E,]>A,,C,>E,A,3/2 |[M:5/16][K:treble] E<Ac/ | %6
[M:4/4][K:bass] A,,2 [E,A,]2 C,2 _G,2 | D,>D, F,>A, D,>[K:treble]D E>F | %8
 [E,,E,]2 E,2 [E,,E,]2 (3E,F,G, |[M:11/16] A,>F,E,>C,A,,3/2 |[M:5/16] A,<B,_C/ |[M:4/4] C2 z2 z4 | %12
[M:3/4] C2 z2 z2 |[M:1/4][K:treble] A>B |[M:4/4] c2[K:bass] z2 z4 | %15
 [E,B,]>E, [G,B,]>G, [E,B,]2 z2 | z z/ [E,B,]/ [E,B,]>[E,B,] [E,A,E]>[E,A,] [D,G,E]>[D,G,] | %17
 [C,A,]4 [F,A,C]2 [D,A,]>[D,A,] | [E,A,E] [E,A,E]3 [E,G,D]2 [E,G,D]2 | %19
[M:11/16] [A,,A,]/-[A,,A,]/-[A,,A,]/-[A,,A,]/-[A,,A,]/-[A,,A,]/-[A,,A,]/-[A,,A,]-<[A,,A,] |] %20
V:3
 x8 | E2- [CE-c]2 [E-B]2 [A,CE-A]2 | [DE]4- [DEG]2 z2 | x8 |[M:11/16] x11/2 |[M:5/16] x5/2 | %6
[M:4/4] E2- [CE-c]2 [E-B]2 [A,CEA]2 | x8 | .[Ec]2 [A,C]2 [DB]2 [DB]2 | %9
[M:11/16] z/ z/ z/ z/ z/ z/ z E3/2 |[M:5/16] x5/2 |[M:4/4] z z/ A,/ z z/ A,/ A,>C D>=D | %12
[M:3/4] z z/ A,/ z z/ A,/ A,2 |[M:1/4] x2 |[M:4/4] z z/ E/ E>E D>D C>A, | %15
 G->[B,G] z z/ B,/ G>E G>B | z z/ G/ G>G z z/ E/ z z/ E/ | E3- [Ec] A2 [FA]>[FB] | x8 | %19
[M:11/16] x11/2 |] %20
V:4
 x8 | x8 | x11/2[K:treble] x5/2 | x8 |[M:11/16] x11/2 |[M:5/16][K:treble] x5/2 | %6
[M:4/4][K:bass] x8 | x11/2[K:treble] x5/2 | x8 |[M:11/16] x11/2 |[M:5/16] x5/2 | %11
[M:4/4] z z/ A,,/ [A,,A,]>A,, A,,>A, B,>_C |[M:3/4] z z/ A,,/ [A,,A,]>A,, A,,2 | %13
[M:1/4][K:treble] x2 |[M:4/4] z z/[K:bass] A,,/ C,>C, B,,>B,, A,,>C, | x8 | x8 | x8 | x8 | %19
[M:11/16] x11/2 |] %20
V:5
 x8 | x8 | x8 | x8 |[M:11/16] x11/2 |[M:5/16] x5/2 |[M:4/4] x8 | x8 | x8 |[M:11/16] x11/2 | %10
[M:5/16] x5/2 |[M:4/4] x8 |[M:3/4] x6 |[M:1/4] x2 |[M:4/4] x8 | z2 E2 z4 | x8 | x8 | x8 | %19
[M:11/16] x11/2 |] %20

